tools/download-figma-icons/icons/outlined-large/double-person.svg

<svg width="64" height="64" viewBox="0 0 64 64" fill="none" xmlns="http://www.w3.org/2000/svg">
<path d="M40 8C40 3.59 36.411 0 32 0C27.589 0 24 3.59 24 8C24 12.41 27.589 16 32 16C36.411 16 40 12.41 40 8ZM32 13C29.2431 13 26.9975 10.76 26.9975 8C26.9975 5.24 29.2331 3 32 3C34.7669 3 37.0025 5.24 37.0025 8C37.0025 10.76 34.7669 13 32 13Z" fill="black"/>
<path d="M17 24V41.5C17 44.52 19.4407 46.98 22.4517 47L24.4222 61.41C24.6323 62.89 25.9027 64 27.3931 64H30.5541V61H27.3931L25.0724 44H22.4917C21.1212 44 20.0109 42.88 20.0109 41.5V24C20.0109 22.34 21.3513 21 23.0018 21H30.5641V18H23.0018C19.7008 18 17.02 20.69 17.02 24H17Z" fill="black"/>
<path d="M48.9098 46.11L43.2881 22.44C43.2881 22.44 43.2681 22.39 43.2681 22.36C42.5579 19.71 40.4573 18 37.8965 18H33.5352V21H37.8965C39.0568 21 39.9871 21.74 40.3672 23.14L45.9789 46.78C46.119 47.4 45.6488 48 45.0086 48H38.0265L36.6961 61H33.5352V64H36.6961C38.2366 64 39.517 62.84 39.677 61.3L40.7273 51H45.0086C46.229 51 47.3593 50.45 48.1196 49.5C48.8898 48.54 49.1699 47.31 48.8998 46.11H48.9098Z" fill="black"/>
</svg>

<svg width="64" height="64" viewBox="0 0 64 64" fill="none" xmlns="http://www.w3.org/2000/svg"><path d="M40 8c0-4.41-3.589-8-8-8s-8 3.59-8 8 3.589 8 8 8 8-3.59 8-8Zm-8 5a5 5 0 1 1 0-10 5 5 0 1 1 0 10ZM17 24v17.5c0 3.02 2.44 5.48 5.452 5.5l1.97 14.41A3.013 3.013 0 0 0 27.393 64h3.161v-3h-3.16l-2.322-17h-2.58a2.49 2.49 0 0 1-2.481-2.5V24c0-1.66 1.34-3 2.99-3h7.563v-3h-7.562c-3.301 0-5.982 2.69-5.982 6H17Zm31.91 22.11-5.622-23.67s-.02-.05-.02-.08c-.71-2.65-2.81-4.36-5.371-4.36h-4.362v3h4.362c1.16 0 2.09.74 2.47 2.14l5.612 23.64a1 1 0 0 1-.97 1.22h-6.983l-1.33 13h-3.16v3h3.16c1.54 0 2.821-1.16 2.981-2.7l1.05-10.3h4.282c1.22 0 2.35-.55 3.11-1.5a3.98 3.98 0 0 0 .78-3.39h.01Z" fill="currentColor"/></svg>
